src/components/00-materials/images-raw/Breakpoint.svg

<svg width="96" height="96" viewBox="0 0 96 96" fill="none" xmlns="http://www.w3.org/2000/svg">
<path d="M41 57H8M41 62H34M25 77C29.41 77 32 67 32 67M22 77H44" stroke="#00008F" stroke-width="2" stroke-linecap="round" stroke-linejoin="round"/>
<path d="M41 67H12C10.9391 67 9.92172 66.5786 9.17157 65.8284C8.42143 65.0783 8 64.0609 8 63V24C8 22.9391 8.42143 21.9217 9.17157 21.1716C9.92172 20.4214 10.9391 20 12 20H64C65.0609 20 66.0783 20.4214 66.8284 21.1716C67.5786 21.9217 68 22.9391 68 24V27" stroke="#00008F" stroke-width="2" stroke-linecap="round" stroke-linejoin="round"/>
<path d="M70 77H44C43.2044 77 42.4413 76.6839 41.8787 76.1213C41.3161 75.5587 41 74.7956 41 74V30C41 29.2044 41.3161 28.4413 41.8787 27.8787C42.4413 27.3161 43.2044 27 44 27H72C72.7956 27 73.5587 27.3161 74.1213 27.8787C74.6839 28.4413 75 29.2044 75 30V38M68 67H41M75 33H41M62 72H54M88 69H68M88 43H68M79 73H77" stroke="#00008F" stroke-width="2" stroke-linecap="round" stroke-linejoin="round"/>
<path d="M86 38H70C68.8954 38 68 38.8954 68 40V75C68 76.1046 68.8954 77 70 77H86C87.1046 77 88 76.1046 88 75V40C88 38.8954 87.1046 38 86 38Z" stroke="#00008F" stroke-width="2" stroke-linecap="round" stroke-linejoin="round"/>
</svg>

<svg width="96" height="96" viewBox="0 0 96 96" fill="none" xmlns="http://www.w3.org/2000/svg"><path d="M41 57H8m33 5h-7m-9 15c4.41 0 7-10 7-10M22 77h22" stroke="#00008F" stroke-width="2" stroke-linecap="round" stroke-linejoin="round"/><path d="M41 67H12a4 4 0 01-4-4V24a4 4 0 014-4h52a4 4 0 014 4v3" stroke="#00008F" stroke-width="2" stroke-linecap="round" stroke-linejoin="round"/><path d="M70 77H44a3 3 0 01-3-3V30a3 3 0 013-3h28a3 3 0 013 3v8m-7 29H41m34-34H41m21 39h-8m34-3H68m20-26H68m11 30h-2" stroke="#00008F" stroke-width="2" stroke-linecap="round" stroke-linejoin="round"/><path d="M86 38H70a2 2 0 00-2 2v35a2 2 0 002 2h16a2 2 0 002-2V40a2 2 0 00-2-2z" stroke="#00008F" stroke-width="2" stroke-linecap="round" stroke-linejoin="round"/></svg>
